images/dest/icon--tokens-2.svg

<svg width="172" height="81" viewBox="0 0 172 81" fill="none" xmlns="http://www.w3.org/2000/svg">
<path d="M128.096 74.1293C125.064 77.5381 118.819 77.5891 115.703 74.2305L87.8761 44.2423C85.8191 42.0254 85.8191 38.9746 87.8761 36.7577L115.703 6.76953C118.819 3.41092 125.064 3.46189 128.096 6.8707L154.772 36.8589C156.706 39.0336 156.706 41.9664 154.772 44.1411L128.096 74.1293Z" fill="url(#paint0_linear)"/>
<path d="M128.096 74.1293C125.064 77.5381 118.819 77.5891 115.703 74.2305L87.8761 44.2423C85.8191 42.0254 85.8191 38.9746 87.8761 36.7577L115.703 6.76953C118.819 3.41092 125.064 3.46189 128.096 6.8707L154.772 36.8589C156.706 39.0336 156.706 41.9664 154.772 44.1411L128.096 74.1293Z" fill="url(#paint1_linear)"/>
<path d="M90.5573 74.1293C87.5251 77.5381 81.2805 77.5891 78.164 74.2305L50.3373 44.2423C48.2803 42.0254 48.2803 38.9746 50.3373 36.7577L78.164 6.76953C81.2805 3.41092 87.5251 3.46189 90.5573 6.8707L117.233 36.8589C119.168 39.0336 119.168 41.9664 117.233 44.1411L90.5573 74.1293Z" fill="url(#paint2_linear)"/>
<path d="M90.5573 74.1293C87.5251 77.5381 81.2805 77.5891 78.164 74.2305L50.3373 44.2423C48.2803 42.0254 48.2803 38.9746 50.3373 36.7577L78.164 6.76953C81.2805 3.41092 87.5251 3.46189 90.5573 6.8707L117.233 36.8589C119.168 39.0336 119.168 41.9664 117.233 44.1411L90.5573 74.1293Z" fill="url(#paint3_linear)"/>
<path d="M56.1274 74.1293C53.0951 77.5381 46.8506 77.5891 43.734 74.2305L15.9074 44.2423C13.8503 42.0254 13.8503 38.9746 15.9074 36.7577L43.734 6.76953C46.8506 3.41092 53.0951 3.46189 56.1274 6.8707L82.8031 36.8589C84.7376 39.0336 84.7376 41.9664 82.8032 44.1411L56.1274 74.1293Z" fill="url(#paint4_linear)"/>
<path d="M56.1274 74.1293C53.0951 77.5381 46.8506 77.5891 43.734 74.2305L15.9074 44.2423C13.8503 42.0254 13.8503 38.9746 15.9074 36.7577L43.734 6.76953C46.8506 3.41092 53.0951 3.46189 56.1274 6.8707L82.8031 36.8589C84.7376 39.0336 84.7376 41.9664 82.8032 44.1411L56.1274 74.1293Z" fill="url(#paint5_linear)"/>
<path d="M40 45.0351V26H44.6978V44.7504C44.6978 46.5129 45.2152 47.9093 46.2501 48.9397C47.3122 49.943 48.8373 50.4446 50.8254 50.4446C52.8134 50.4446 54.3249 49.943 55.3598 48.9397C56.4219 47.9093 56.9529 46.5129 56.9529 44.7504V26H61.6507V45.0351C61.6507 48.0449 60.6431 50.4717 58.6278 52.3156C56.6398 54.1052 54.0389 55 50.8254 55C47.6118 55 45.011 54.1052 43.0229 52.3156C41.0076 50.4717 40 48.0449 40 45.0351Z" fill="white"/>
<path d="M82.3731 45.3198V26H87.0709V54.4712H83.3944L69.9137 35.1515V54.4712H65.2159V26H68.8924L82.3731 45.3198Z" fill="white"/>
<path d="M88.6969 26H109.531V30.4741H101.483V54.4712H96.7853V30.4741H88.6969V26Z" fill="white"/>
<path d="M127.997 39.7069C129.249 40.3576 130.23 41.266 130.938 42.432C131.646 43.5708 132 44.8724 132 46.3366C132 48.6685 131.169 50.6073 129.508 52.1529C127.847 53.6985 125.818 54.4712 123.421 54.4712H111.166V26H122.523C124.865 26 126.839 26.7592 128.446 28.2777C130.08 29.7962 130.897 31.6671 130.897 33.8906C130.897 36.331 129.93 38.2698 127.997 39.7069ZM122.523 30.3927H115.864V37.8766H122.523C123.558 37.8766 124.429 37.5241 125.137 36.8191C125.845 36.087 126.199 35.1921 126.199 34.1346C126.199 33.0771 125.845 32.1959 125.137 31.4909C124.429 30.7588 123.558 30.3927 122.523 30.3927ZM115.864 50.0785H123.421C124.511 50.0785 125.423 49.6989 126.158 48.9397C126.921 48.1533 127.302 47.2043 127.302 46.0926C127.302 44.9808 126.921 44.0453 126.158 43.2861C125.423 42.4998 124.511 42.1066 123.421 42.1066H115.864V50.0785Z" fill="white"/>
<defs>
<linearGradient id="paint0_linear" x1="88.8934" y1="65.5403" x2="143.243" y2="-2.44386" gradientUnits="userSpaceOnUse">
<stop stop-color="#D9C88B"/>
<stop offset="1" stop-color="#AA9036" stop-opacity="0"/>
</linearGradient>
<linearGradient id="paint1_linear" x1="88.8934" y1="65.5403" x2="143.243" y2="-2.44386" gradientUnits="userSpaceOnUse">
<stop offset="0.0904391" stop-color="#DDAE09"/>
<stop offset="0.127005" stop-color="#FFF5D0"/>
<stop offset="0.271574" stop-color="#D1BA6A"/>
<stop offset="0.510797" stop-color="#B9A049"/>
<stop offset="0.706074" stop-color="#AB9135"/>
<stop offset="0.823361" stop-color="#AD9D61"/>
</linearGradient>
<linearGradient id="paint2_linear" x1="51.3546" y1="65.5403" x2="105.704" y2="-2.44386" gradientUnits="userSpaceOnUse">
<stop stop-color="#D9C88B"/>
<stop offset="1" stop-color="#AA9036" stop-opacity="0"/>
</linearGradient>
<linearGradient id="paint3_linear" x1="51.3546" y1="65.5403" x2="105.704" y2="-2.44386" gradientUnits="userSpaceOnUse">
<stop offset="0.0904391" stop-color="#DDAE09"/>
<stop offset="0.127005" stop-color="#FFF5D0"/>
<stop offset="0.271574" stop-color="#D1BA6A"/>
<stop offset="0.510797" stop-color="#B9A049"/>
<stop offset="0.706074" stop-color="#AB9135"/>
<stop offset="0.823361" stop-color="#AD9D61"/>
</linearGradient>
<linearGradient id="paint4_linear" x1="16.9246" y1="65.5403" x2="71.2744" y2="-2.44386" gradientUnits="userSpaceOnUse">
<stop stop-color="#D9C88B"/>
<stop offset="1" stop-color="#AA9036" stop-opacity="0"/>
</linearGradient>
<linearGradient id="paint5_linear" x1="16.9246" y1="65.5403" x2="71.2744" y2="-2.44386" gradientUnits="userSpaceOnUse">
<stop offset="0.0904391" stop-color="#DDAE09"/>
<stop offset="0.127005" stop-color="#FFF5D0"/>
<stop offset="0.271574" stop-color="#D1BA6A"/>
<stop offset="0.510797" stop-color="#B9A049"/>
<stop offset="0.706074" stop-color="#AB9135"/>
<stop offset="0.823361" stop-color="#AD9D61"/>
</linearGradient>
</defs>
</svg>

<svg width="172" height="81" fill="none" xmlns="http://www.w3.org/2000/svg"><path d="M128.096 74.13c-3.032 3.408-9.277 3.46-12.393.1L87.876 44.243c-2.057-2.216-2.057-5.267 0-7.484L115.703 6.77c3.116-3.36 9.361-3.308 12.393.1l26.676 29.989c1.934 2.175 1.934 5.107 0 7.282L128.096 74.13z" fill="url(#paint0_linear)"/><path d="M90.557 74.13c-3.032 3.408-9.276 3.46-12.393.1L50.337 44.243c-2.057-2.216-2.057-5.267 0-7.484L78.164 6.77c3.117-3.36 9.361-3.308 12.393.1l26.676 29.989c1.935 2.175 1.935 5.107 0 7.282L90.557 74.13z" fill="url(#paint1_linear)"/><path d="M56.127 74.13c-3.032 3.408-9.276 3.46-12.393.1L15.907 44.243c-2.057-2.216-2.057-5.267 0-7.484L43.734 6.77c3.117-3.36 9.361-3.308 12.393.1l26.676 29.99c1.935 2.175 1.935 5.107 0 7.282L56.127 74.13z" fill="url(#paint2_linear)"/><path d="M40 45.035V26h4.698v18.75c0 1.763.517 3.16 1.552 4.19 1.062 1.003 2.587 1.505 4.575 1.505s3.5-.502 4.535-1.505c1.062-1.03 1.593-2.427 1.593-4.19V26h4.698v19.035c0 3.01-1.008 5.437-3.023 7.28C56.64 54.106 54.038 55 50.825 55s-5.814-.895-7.802-2.684C41.008 50.472 40 48.045 40 45.036zm42.373.285V26h4.698v28.471h-3.677l-13.48-19.32v19.32h-4.698V26h3.676l13.481 19.32zM88.697 26h20.834v4.474h-8.048v23.997h-4.698V30.474h-8.088V26zm39.3 13.707c1.252.65 2.233 1.559 2.941 2.725.708 1.139 1.062 2.44 1.062 3.905 0 2.331-.831 4.27-2.492 5.816-1.661 1.546-3.69 2.318-6.087 2.318h-12.255V26h11.357c2.342 0 4.316.76 5.923 2.278 1.634 1.518 2.451 3.39 2.451 5.613 0 2.44-.967 4.379-2.9 5.816zm-5.474-9.314h-6.659v7.484h6.659c1.035 0 1.906-.353 2.614-1.058.708-.732 1.062-1.627 1.062-2.684 0-1.058-.354-1.94-1.062-2.644-.708-.732-1.579-1.098-2.614-1.098zm-6.659 19.686h7.557c1.09 0 2.002-.38 2.737-1.14.763-.786 1.144-1.735 1.144-2.846 0-1.112-.381-2.048-1.144-2.807-.735-.786-1.647-1.18-2.737-1.18h-7.557v7.973z" fill="#fff"/><defs><linearGradient id="paint0_linear" x1="96.977" y1="60.75" x2="136.591" y2="11.828" gradientUnits="userSpaceOnUse"><stop stop-color="#B299DA"/><stop offset=".538" stop-color="#705896" stop-opacity=".462"/><stop offset="1" stop-color="#371F5C" stop-opacity="0"/></linearGradient><linearGradient id="paint1_linear" x1="59.438" y1="60.75" x2="99.052" y2="11.828" gradientUnits="userSpaceOnUse"><stop stop-color="#B299DA"/><stop offset=".538" stop-color="#705896" stop-opacity=".462"/><stop offset="1" stop-color="#371F5C" stop-opacity="0"/></linearGradient><linearGradient id="paint2_linear" x1="25.008" y1="60.75" x2="64.622" y2="11.828" gradientUnits="userSpaceOnUse"><stop stop-color="#B299DA"/><stop offset=".538" stop-color="#705896" stop-opacity=".462"/><stop offset="1" stop-color="#371F5C" stop-opacity="0"/></linearGradient></defs></svg>
